packages/components/src/telekom/icons/weather/thunder-snow/selected.svg

<?xml version="1.0" encoding="UTF-8"?>
<svg width="24px" height="24px" viewBox="0 0 24 24" version="1.1" xmlns="http://www.w3.org/2000/svg" xmlns:xlink="http://www.w3.org/1999/xlink">
    <title>icon/weather/thunder-snow/selected</title>
    <g id="icon/weather/thunder-snow/selected" stroke="none" stroke-width="1" fill="none" fill-rule="evenodd">
        <path d="M11.2625,13.5005 L8.0575,18.0005 L11.169,18.0005 L4.8605,23.098 C4.69959091,23.228 4.48744215,23.0584132 4.54599211,22.884882 L4.572,22.833 L6.8325,19.4955 L4.439,19.4955 L7.7655,13.5005 L11.2625,13.5005 Z M15.851,13.2775 L17.15,14.0275 L16.2995,15.5005 L18.0005,15.5005 L18.0005,16.9955 L16.2965,16.9955 L17.15,18.4735 L15.851,19.2235 L15.0005,17.75 L14.15,19.2235 L12.851,18.4735 L13.7045,16.9955 L12.0005,16.9955 L12.0005,15.5005 L13.7015,15.5005 L12.851,14.0275 L14.15,13.2775 L15.0005,14.7505 L15.851,13.2775 Z M13.5145,0.5645 C16.7305,0.5645 19.5635,2.5685 20.664,5.584 C22.551,6.578 23.753,8.555 23.753,10.7115 C23.753,13.3708939 21.9607649,15.6118489 19.5302003,16.2872981 L19.3005,16.346 L19.3005,14.344 C19.3005,14.0248889 19.1484012,13.7275062 18.8958251,13.5403457 L18.7965,13.4755 L15.493,11.589 C15.2256875,11.43675 14.9059297,11.4165703 14.6248359,11.5294658 L14.507,11.586 L13.5,12.1515 L13.4155,12.2005 L7,12.2005 L4.6575,16.422 C2.164,16.0135 0.253,13.8385 0.253,11.2155 C0.253,9.3035 1.285,7.5495 2.92,6.6175 C3.0595,4.128 5.1165,2.146 7.6245,2.146 C7.9935,2.146 8.3615,2.191 8.7245,2.2795 C10.0815,1.1705 11.7665,0.5645 13.5145,0.5645 Z" id="Shape" fill="#262626"></path>
    </g>
</svg>

<svg width="24" height="24" xmlns="http://www.w3.org/2000/svg"><path d="M11.262 13.5L8.057 18h3.112L4.86 23.098c-.16.13-.373-.04-.314-.213l.026-.052 2.26-3.337H4.44L7.766 13.5h3.496zm4.589-.223l1.299.75-.85 1.474H18v1.495h-1.703l.853 1.478-1.299.75-.85-1.474-.851 1.474-1.299-.75.853-1.479H12V15.5h1.701l-.85-1.473 1.299-.75.85 1.474.851-1.473zM13.514.566a7.596 7.596 0 017.15 5.019 5.805 5.805 0 013.089 5.127c0 2.66-1.792 4.9-4.223 5.576l-.23.059v-2.002a1 1 0 00-.404-.804l-.1-.064-3.303-1.887a1 1 0 00-.868-.06l-.118.057-1.007.566-.085.049H7l-2.343 4.221a5.275 5.275 0 01-4.404-5.207A5.299 5.299 0 012.92 6.618c.14-2.489 2.197-4.471 4.705-4.471.369 0 .736.045 1.1.134a7.558 7.558 0 014.79-1.715z" fill="#000" fill-rule="evenodd"/></svg>
